X:1
T:Title
L:1/8
Q:1/4=120
M:3/4
K:F
V:1 treble nm="Midi_1"
V:1
"^4." c2 | (B2 A2)"^Descant to Surrey, AMNS 111" d2 | (c2 B2) A2 | d4 e2 | ^c4 d2 | (f2 e2) d2 | %6
w: Though|in * the|paths * of|death I|tread, with|gloo * my|
 c4 e2 | (d2 e2) f2 | (f2 e2) e2 | (f6- | f2 e2) d2 | d4 c2 | c4 e2 | d4 =B2 | c4 A2 | %15
w: hor- rors|o * ver-|spread, * my|heart|* * shall|fear no|ill, for|thou, O|Lord, art|
 (G2 A2) =B2 | c4 c2 | (d3 f) (ed) | c3 (e dc) | B3 (d cB) | (A2 =B^c) d2 | d4 (ed) | ^c4 d2 | %23
w: with * me|still: thy|friend * ly *|crook shall * *|give me * *|aid, * * and|guide me *|through the|
"^Descant by Andrew Sims, May 2017\nBased on harmony by Noel Rawsthorne" d4 c2 | c4 |] %25
w: dread- ful|shade.|

